X:68
T:Dingle Regatta
R:Jig
M:6/8
L:1/8
K:G
|d^cd e2 d|BAB d2 B|A2 A AGA|B2 A G2 d|
|d^cd e2 d|BAB d2 B|A2 A ABA|G3 G3 :|
|:d3 def |g2g gfg|a2 a aga| b2 a gfe|
|d2 d def |g2 g gfg|a2 g f2 e| def g3:|
|:g3 d3|BdB G3|ABA DEF|G2 B d3|
|g3 d3|BdB G2 d|ABA DEF|G3 G3:|
